X: 17482
T: Hill Of The Cranes, The
R: reel
M: 4/4
K: Gmajor
GABG E2 GE|DEGA BedB|AE ~E2 cE ~E2|A2 AG FDEF|
GABG E2 GE|DEGA BedB|c2 cB cgfg|1 ecAF G2 (3DEF:|2 ecAF G2 Bd||
gd ~d2 gdbd|gfed cBAG|EAAB ~A2 AG|EAAG FDEF|
GDB,D G,B,DG|BG (3ABc dBGB|dg (3Bcd ecAF|1 AGGF G2 Bd:|2 AGGF G2 (3DEF||

